src/components/Icon/svg/reply.svg

<svg xmlns="http://www.w3.org/2000/svg" width="32" height="32" viewBox="0 0 32 32">
  <path fill-rule="evenodd" d="M18.655 9.247L25.367 16l-6.712 6.753V19.36c0-.606-.488-1.097-1.09-1.097-.468 0-.86-.002-1.625-.01-3.526-.03-5.857.104-7.626.71 2.16-3.595 4.305-4.62 9.404-5.353.538-.077.937-.54.937-1.086V9.247zM4.108 22.47c-.545 1.208 1.113 2.17 1.88 1.09 1.94-2.732 3.696-3.168 9.933-3.113l.556.005v4.95c0 .976 1.174 1.466 1.86.775l9.347-9.4c.426-.43.426-1.124 0-1.553l-9.345-9.4c-.687-.692-1.86-.202-1.86.775v4.98C9.625 12.71 7.535 14.875 4.11 22.47z"/>
</svg>

<svg xmlns="http://www.w3.org/2000/svg" width="32" height="32" viewBox="0 0 32 32">
  <path d="M18.655,9.247 L25.367,16 L18.655,22.753 L18.655,19.36 C18.655,18.754 18.167,18.263 17.565,18.263 C17.097,18.263 16.705,18.261 15.94,18.253 C12.414,18.223 10.083,18.357 8.314,18.963 C10.474,15.368 12.619,14.343 17.718,13.61 C18.256,13.533 18.655,13.07 18.655,12.524 L18.655,9.247 Z M4.108,22.47 C3.563,23.678 5.221,24.64 5.988,23.56 C7.928,20.828 9.684,20.392 15.921,20.447 L16.477,20.452 L16.477,25.402 C16.477,26.378 17.651,26.868 18.337,26.177 L27.684,16.777 C28.11,16.347 28.11,15.653 27.684,15.224 L18.339,5.824 C17.652,5.132 16.479,5.622 16.479,6.599 L16.479,11.579 C9.625,12.71 7.535,14.875 4.11,22.47 L4.108,22.47 Z" id="Shape" transform="translate(16.001797, 16.000172) scale(-1, 1) translate(-16.001797, -16.000172)" />
</svg>
